X:1
T:Michael Praetorius 1571 - 1621
T:Auf bleibet Treu und haltet fest
%%score [ 1 2 3 4 ]
L:1/8
Q:1/4=240
M:none
K:C
V:1 treble nm="Cantus"
V:2 treble nm="Altus"
V:3 treble-8 nm="Tenor"
V:4 bass nm="Bassus"
V:1
 c2 | c4 c4 B4 A4 | c4 A4 G4 z2 E2 | G4 A4 G4 C4 | E4 D4 C4 z2 c2 |[M:4/2] c4 c4 B4 A4 | %6
w: Auf|blei- bet treu und|hal- tet fest, so|wird euch mehr ge-|lin- * gen. Wer|sich von Gott nicht|
 c4 A4 G4 z2 E2 | G4 A4 G4 C4 | E4 D4 C4 z2 E2 | E4 E4 F4 E4 | E4 E4 C4 z2 G2 | B4 c4 d4 c2 B4 | %12
w: schei- den läßt, der|kann die Höl- le|zwin- * gen, Der|al- te Gott, der|treu- e Gott läßt|sich noch im- mer schau-|
 AG A4 G4 z2 G2 G4 | G4 A4 G4 G4 | G4 E4 z2 C2 x4 | E4 F4 G4 F2 E4 | DC D4 C4 z2 G2 G4 | %17
w: * * * en und macht|des Teu- fels List|zu Spott und|sei- nen Stolz zu Grau|* * * en, und sei-|
 G4 A4 B4 c8 | d8"C" x16 x4 |] x16 |] %20
w: nen Stolz zu Grau-|||
V:2
 G2 | G4 G4 G4 F4 | ED C2 D4 B,4 z2 C2 | C4 C4 B,4 A,4 | B,2 C2 B,4 G,4 z2 G2 | %5
w: Auf|blei- bet treu und|hal- * * tet fest, so|wird euch mehr ge-|lin- * * gen. Wer|
[M:4/2] G4 G4 G4 F4 | ED C2 D4 B,4 z2 C2 | C4 C4 B,4 A,4 | B,2 C2 B,4 G,4 z2 C2 | C4 G,4 C4 C4 | %10
w: sich von Gott nicht|schei- * * den läßt, der|kann die Höl- le|zwin- * * gen, Der|al- te Gott, der|
 B,4 B,4 A,4 z2 D2 | D4 G4 F4 E2 G2 x2 | D2 E2 ^F4 G4 z2 E2 x2 | D4 E4 F4 E4 | D4 D4 C4 z2 A,2 | %15
w: treu- e Gott läßt|sich noch im- mer *|schau * * en und|macht des Teu- fels|List zu Spott und|
 C4 C4 B,4 A,2 C2 x2 | G,2 A,2 B,4 A,4 z2 B,2 x2 | E4 D6 C2 G8 | F4 D8"E" x16 |] x16 |] %20
w: sei- nen Stolz zu Grau|* * * en, und|sei- * nen Stolz|zu Grau-||
V:3
 c2 | e4 e4 d4 d4 | G4 ^F4 G4 z2 G2 | E4 F4 D3 E F2 E2 | G8 E4 z2 c2 | %5
w: Auf|blei- bet treu und|hal- tet fest, so|wird euch mehr * * ge-|lin- gen. Wer|
[M:4/2][K:treble-8] e4 e4 d4 d4 | G4 ^F4 G4 z2 G2 | E4 F4 D3 E F2 E2 | G8 E4 z2 G2 | A4 E4 A4 A4 | %10
w: sich von Gott nicht|schei- den läßt, der|kann die Höl- * * le|zwin- gen, Der|al- te Gott, der|
 ^G4 G4 A4 z2 B2 | B4 G4 A3 B c2 d2 x2 | B4 d4 B4 z2 c2 x2 | G4 G4 c4 c4 | B4 B4 G4 z2 F2 | %15
w: treu- e Gott läßt|sich noch im- * * mer|schau * en und|macht des Teu- fels|List zu Spott und|
 G4 A4 D4 F4 x2 | G2 E2 G4 E4 z2 G2 x2 | c4 B4 A4 G4 x4 | A2 B2 c8 B4 x12 |]"G" x16 |] %20
w: sei- nen Stolz zu|Grau * * en, und|sei- nen Stolz zu|Grau- * * *||
V:4
 C,2 | C,4 C,4 G,4 D,4 | C,D, E,2 D,4 G,,4 z2 C,2 | C,4 F,,4 G,,4 A,,4 | G,,8 C,4 z2 C,2 | %5
w: Auf|blei- bet treu und|hal- * * tet fest, so|wird euch mehr ge-|lin- gen. Wer|
[M:4/2] C,4 C,4 G,4 D,4 | C,D, E,2 D,4 G,,4 z2 C,2 | C,4 F,,4 G,,4 A,,4 | G,,8 C,4 z2 C,2 | %9
w: sich von Gott nicht|schei- * * den läßt, der|kann die Höl- le|zwin- gen, Der|
 A,,4 C,4 F,,4 A,,4 | E,,4 E,,4 A,,4 z2 G,,2 | G,4 E,4 D,4 A,2 G,4 | E,2 D,4 G,4 z2 C,2 B,,4 | %13
w: al- te Gott, der|treu- e Gott läßt|sich noch im- mer schau|* * en und macht|
 C,4 F,,4 C,4 G,,4 | G,,4 C,4 z2 F,,2 x4 | C,4 A,,4 G,,4 D,2 C,4 | A,,2 G,,4 A,,4 z2 E,2 C,4 | %17
w: des Teu- fels List|zu Spott und|sei- nen Stolz zu Grau|* * en, und sei-|
 G,4 F,4 E,4 A,8 | G,8"A" x16 x4 |] x16 |] %20
w: nen Stolz zu Grau-|||

